icons/cakephp.svg

<svg viewBox="0 0 28 21.85" xmlns="http://www.w3.org/2000/svg"><path d="m14 8.74 10.95 2.72c1.9-.74 3.05-1.69 3.05-2.72v-4.37c0-2.37-6.27-4.37-14-4.37s-14 2-14 4.37v4.37c0 2.41 6.27 4.37 14 4.37z" fill="#e64a19"/><path d="m24.95 11.46-10.95-2.72v4.37l10.95 2.72c1.9-.75 3.05-1.69 3.05-2.72v-4.37c0 1.03-1.15 1.98-3.05 2.72zm-24.95-2.72v4.37c0 2.41 6.27 4.37 14 4.37v-4.37c-7.73 0-14-1.96-14-4.37z" fill="#fff"/><path d="m24.95 15.83-10.95-2.72v4.37l10.95 2.72c1.9-.75 3.05-1.69 3.05-2.72v-4.37c0 1.03-1.15 1.97-3.05 2.72zm-24.95-2.72v4.37c0 2.41 6.27 4.37 14 4.37v-4.37c-7.73 0-14-1.96-14-4.37z" fill="#e64a19"/></svg>

<?xml version="1.0" encoding="utf-8"?>
<!-- Generator: Adobe Illustrator 28.0.0, SVG Export Plug-In . SVG Version: 6.00 Build 0)  -->
<svg version="1.1" id="Layer_1" xmlns="http://www.w3.org/2000/svg" xmlns:xlink="http://www.w3.org/1999/xlink" x="0px" y="0px"
	 viewBox="0 0 28 21.8" style="enable-background:new 0 0 28 21.8;" xml:space="preserve">
<style type="text/css">
	.st0{fill:#E64A19;}
	.st1{fill:#FFFFFF;}
</style>
<path class="st0" d="M14,8.7l11,2.7c1.9-0.7,3-1.7,3-2.7V4.4C28,2,21.7,0,14,0S0,2,0,4.4v4.4c0,2.4,6.3,4.4,14,4.4V8.7z"/>
<path class="st1" d="M25,11.5L14,8.7v4.4L25,15.8c1.9-0.8,3-1.7,3-2.7V8.7C28,9.8,26.9,10.7,25,11.5z M0,8.7v4.4
	c0,2.4,6.3,4.4,14,4.4v-4.4C6.3,13.1,0,11.1,0,8.7z"/>
<path class="st0" d="M25,15.8L14,13.1v4.4L25,20.2c1.9-0.8,3-1.7,3-2.7v-4.4C28,14.1,26.9,15.1,25,15.8z M0,13.1v4.4
	c0,2.4,6.3,4.4,14,4.4v-4.4C6.3,17.5,0,15.5,0,13.1z"/>
</svg>
